app/client/src/assets/icons/blueprintjs/16px/symbol-diamond.svg

<svg xmlns="http://www.w3.org/2000/svg" xml:space="preserve" viewBox="0 0 16 16"><path fill-rule="evenodd" d="M12 8.01c0-.19-.07-.36-.16-.51l.01-.01-3-5-.01.01c-.17-.29-.48-.49-.84-.49s-.67.2-.84.49l-.02-.01-3 5 .02.01c-.09.15-.16.32-.16.51s.07.36.16.51h-.02l3 5 .01-.01c.18.29.49.5.85.5s.67-.2.84-.49l.01.01 3-5-.01-.01c.09-.16.16-.32.16-.51z" clip-rule="evenodd"/></svg>

<?xml version="1.0" encoding="utf-8"?>
<!-- Generator: Adobe Illustrator 18.0.0, SVG Export Plug-In . SVG Version: 6.00 Build 0)  -->
<svg version="1.1" id="Layer_1" xmlns="http://www.w3.org/2000/svg" xmlns:xlink="http://www.w3.org/1999/xlink" x="0px" y="0px"
	 viewBox="0 0 16 16" enable-background="new 0 0 16 16" xml:space="preserve">
<g id="symbol_diamond_6_">
	<g>
		<path fill-rule="evenodd" clip-rule="evenodd" d="M12,8.01c0-0.19-0.07-0.36-0.16-0.51l0.01-0.01l-3-5L8.84,2.5
			C8.67,2.21,8.36,2.01,8,2.01S7.33,2.21,7.16,2.5L7.14,2.49l-3,5L4.16,7.5C4.07,7.65,4,7.82,4,8.01s0.07,0.36,0.16,0.51L4.14,8.52
			l3,5l0.01-0.01C7.33,13.8,7.64,14.01,8,14.01s0.67-0.2,0.84-0.49l0.01,0.01l3-5l-0.01-0.01C11.93,8.36,12,8.2,12,8.01z"/>
	</g>
</g>
</svg>
